X:1
T:Io son ferito ay lasso
T:Io son ferito ay lasso
T:Jean de Castro
T:Source : Chansons, madrigaux et motetz à 3 parties---P.Phalèse---1582. Editor : André Vierendeels (11/02/16).
T:b
T:Notes : Original clefs : G2, C2, C3 Editorial accidentals above the staff      
T:©
T:©
T:©
T:©
T:©
T:©
T:©
C:Jean de Castro
Z:©
%%score [ 1 2 3 ]
L:1/8
Q:1/4=132
M:2/2
K:F
V:1 treble nm="Soprano 1" snm="S 1"
V:2 treble nm="Soprano 2" snm="S 2"
V:3 treble-8 nm="Tenor" snm="T"
V:1
 d8 | d8- | d4 d4 | d8 | =B4 z2 B2 | z4 A4- | A4 G4 | z4 d4- | d4 ^c4 | z2 A2 G2 A2 | B4 A4 | %11
w: Io|son|_ fe-|ri-|to, ay,|las-|* so,|las-|* so,|e chi mi|die- de,|
 z2 f2 e2 d2 | c4 d2 A2- | AA B2 G2 B2 | A2 d3 d d2 | c2 B2 A2 f2 | e2 f2 d4 | A8 | z2 d2 c2 d2 | %19
w: e chi mi|die- de, ac-|* cu- sar pur vor-|rei, ac- cu- sar|pur vor- rei, ma|non ho pro-|va,|ma ho non|
 B4 A4 | z4 d4 | d4 d4 | f4 f4 | g6 f2 | e2 d2 ^c4 | d8 | z2 f2 c2 c2 | _e4 d4 | z2 f2 c2 c2 | %29
w: pro- va,|che|sen- z'in-|di- ci'al|mal non|si da fe-|de,|ne get- ta|san- gue,|ne get- ta|
 _e4 d4 | z2 c2 G2 G2 | B4 A4 | z4 d4- | d4 d4 | d8- | d4 d4 | c8 | B4 z2 B2 | c2 B4 A2- | %39
w: san- gue,|ne get- ta|san- gue,|la|_ mia|pia-|* ga|no-|va. Io|spas- m'e mo-|
 A2 A2 z4 | A4 d2 d2 | c4 z2 c2 | f2 f2 e3 c | d4 c4 | z4 z2 A2 | d2 d2 c3 A | B4 A4 | %47
w: * ro,|il col- po|non, il|col- po non si|ve- de,|il|col- po non si|ve- de,|
 z2 d2 d2 d2 | g2 g2 e4 | c4 f2 f2 | d4 ^c4 | z2 A2 A2 A2 | d2 d2 B3 B | B2 A2 G4 | ^F2 d4 A2- | %55
w: la mia ne-|mi- c'ar- ma-|ta non si-|tro- va,|la mia ne-|mi- c'ar- ma- ta|non ri- tro-|va, che fia|
 A2 c4 G2- | G2 B2 A4 | z2 d4 G2 | z2 d2 c4 | z2 g4 d2- | d2 f2 e2 c2 | d4 d4- | d4 c4- | c4 B4 | %64
w: _ tor- nar|_ a lei,|che fia,|che fia,|che fia|_ tor- nar a|lei cru-|* del|_ par-|
 A8 | B4 z2 d2 | c2 f2 e2 c2 | g6 d2 | f2 f2 e4 | d2 f2 f2 f2 | e2 d2 c4 | d4 c2 B2 | A4 B4 | %73
w: ti-|ta, che|sol m'hab- bi'a sa-|nar chi|m'ha fe- ri-|to, che sol m'hab-|bi'a sa- nar|chi m'ha fe-|ri- to,|
 z2 B2 c2 c2 | d2 f2 e4 | A2 B4 c2 | A4 B4 | z4 G4 | G4 G4 | G8 | G8 |] %81
w: che sol m'hab-|bi'a sa- nar|chi m'ha fe-|ri- to,|chi|m'ha fe-|ri-|to.|
V:2
 z4 D4- | D2 E2 F2 G2 | A2 B4 A2 | B4 A4 | z4 G4 | z4 F4 | E4 E4 | F8 | E8 | D4 E2 F2 | G4 F4 | %11
w: Io|_ _ _ _|* son fe-|ri- to,|ay,|las-|so, ay|las-|so,|e chi mi|die- de,|
 z2 A2 c2 A2 | G4 ^F2 F2- | F^F G2 D2 G2 | F2 B3 B B2 | A2 G2 F2 A2 | c2 F2 G4 | F2 F2 E2 A2- | %18
w: e chi mi|die- de, ac-|* cu- sar pur vor-|rei, ac- cu- sar|pur vor- rei, ma|non ho pro-|va, ma non ho|
 A2 G2 A4 | z2 G2 ^F2 F2 | G4 A4 | z2 =B2 B2 B2 | c4 d4 | G4 c4 | c2 F2 E4 | ^F4 z4 | z2 d2 A2 A2 | %27
w: _ pro- va,|ma non ho|pro- va,|che sen- z'in-|di- ci'al|mal non|si da fe-|de,|ne get- ta|
 c4 =B4 | z2 d2 A2 A2 | c4 B2 A2- | A2 E4 E2 | G4 ^F4 | z4 A4- | A4 B4 | B8- | B4 B4 | A8 | %37
w: san- gue,|ne get- ta|san- gue, ne|_ get- ta|san- gue,|la|_ mia|pia-|* ga|no-|
 F4 z2 G2 | A2 G4 ^F2- | F2 ^F2 z4 |"^-natural" z4 z2 F2 | A2 A2 G4 | z2 A2 c2 c2 | B2 G2 A4 | %44
w: va. Io|spas- m'e mo-|* ro,|il|col- po non,|il col- po|non si ve-|
 ^F2 F2 G2 A2 | A2 G2 A2 A2 | z2 G2 F3 G | A4 B4 | G4 c4- | c2 A4 F2 | G4 E4 | z4 z2 D2 | %52
w: de, il col- po|non si ve- de,|la mia ne-|mi- c'ar-|ma- ta|_ non si-|tro- va,|la|
 D2 D2 G2 G2 | F2 A2 B2 B2 | A4 ^F4 | z2 A2 E4 | G4 ^F2 F2 | G4 z2 B2 | A2 F2 A2 A2 | G4 z2 B2 | %60
w: mia ne- mi- c'ar-|ma- ta non si-|tro- va,|che fia|tor- nar a|lei, che|fia tor- nar a|lei, che|
 A2 A2 c2 G2 | B4 B4- | B4 A4- | A4 G4- | G4 ^F4 | G4 B4 | A4 z2 A2 | G2 c2 B3 B | A2 d2 d2 ^c2 | %69
w: fia tor- nar a|lei cru-|* del|_ par-|* ti-|ta, che|sol, che|sol m'hab- bi'a sa-|nar chi m'ha fe-|
 d4 d2 A2 | c2 B2 A3 A | G2 B2 A2 G2 | ^F4 G4 | z2 G2 G2 A2 | B2 d2 c4 | F4 G2 G2 |"^#" F4 G4 | %77
w: ri- to, che|sol m'hab- bi'a sa-|nar chi m'ha fe-|ri- to,|che sol m'hab-|bi'a sa- nar|chi m'ha fe-|ri- to,|
 z4 D4 | _E4 D4 | _E8 | D8 |] %81
w: chi|m'ha fe-|ri-|to.|
V:3
 G6 A2 | B2 c2 d4- | d2 g4 ^f2 | g4 d4 | z4 G4 | d8 | c4 c4 | d8 | A8 | z8 | z8 | d4 c2 d2 | %12
w: Io _|_ _ _|* son fe-|ri- to,|ay,|las-|so, ay,|las-|so,|||e chi mi|
 _e4 d4 | z2 G3 G G2 | d2 B3 B B2 | c2 G2 d4 | z8 | d4 ^c2 d2 | B4 A2 d2 | g2 G2 d4 | G4 d4 | %21
w: chie- de,|ac- cu- sar|pur, ac- cu- sar|pur vor- rei,||ma non ho|pro- va, ma|non ho pro-|va, che|
 g4 g4 | f4 d4 | c4 c4 | c2 d2 A4 | d4 z2 g2 | d2 d2 f4 | c4 z2 g2 | d2 d2 f4 | c4 z2 d2 | %30
w: sen- z'in-|di- ci'al|mal non|si da fe-|de, ne|get- ta san-|gue, ne|get- ta san-|gue, ne|
 A2 A2 c4 | G4 d4- | d4 d4 | ^f4 g4- | g4 G2 A2 | B2 c2 d2 e2 | f4 F4 | B4 z2 G2 | F2 G4 d2- | %39
w: get- ta san-|gue, la|_ mia|pia- ga|_ no- *|||va. Io|spas- m'e mo-|
 d2 d2 z4 | z4 d4 | f2 f2 e2 c2 | d4 A4 | z4 A4 | d2 d2 c2 A2 | B4 A4 | z4 d4 | d2 d2 g2 g2 | %48
w: * ro,|il|col- po non si|ve- de,|il|col- po non si|ve- de,|la|mia ne- mi- c'ar-|
 e4 c4 | f4 d4 | G4 A2 A2 | A3 A d2 d2 | B4 G4 | B2 F2 G4 | d4 z2 d2 | A4 c4 | G2 G2 d4 | z4 g4 | %58
w: ma- ta|non si|tro- va, la|mia ne- mi- c'ar-|ma- ta|nin si tro-|va, che|fia tor-|nar a lei,|che|
 d4 z2 f2 | c4 g4 | d4 c4 | g4 G4 | c8- | c4 c4 | d8 | G8 | z2 d2 c2 f2 | e2 c2 g2 g2 | f2 d2 a4 | %69
w: fia, che|fia tor-|nar a|lei cru-|del|_ par-|ti-|ta,|che sol m'hab-|bi'a sa- nar chi|m'ha fe- ri-|
 d8 | z8 | z4 z2 G2 | d4 G4 | z2 G2 c2 c2 | B2 B2 c4 | d4 _e2 c2 | d4 G4 | z4 G4 | c4 =B4 | c8 | %80
w: to,||fe-|ri- to,|che sol m'hab-|bi'a sa- nar|chi m'ha fe-|ri- to,|chi|m'ha fe-|ri-|
 G8 |] %81
w: to.|

